src/assets/images/icon_sort_down.svg

<?xml version="1.0" encoding="UTF-8"?>
<svg xmlns="http://www.w3.org/2000/svg" id="Layer_1" data-name="Layer 1" viewBox="0 0 24 24" width="512" height="512"><path d="M15,14h7v2.362l-4.698,5.638h4.698v2h-7v-2.362l4.698-5.638h-4.698v-2ZM22,3.5v6.5h-2v-3h-3v3h-2V3.5c0-1.93,1.57-3.5,3.5-3.5s3.5,1.57,3.5,3.5Zm-2,1.5v-1.5c0-.827-.673-1.5-1.5-1.5s-1.5,.673-1.5,1.5v1.5h3ZM7,21V0h-2V21l-3.5-3.5L.086,18.914l4.5,4.5c.39,.39,.902,.585,1.414,.585s1.024-.195,1.414-.585l4.5-4.5-1.414-1.414-3.5,3.5Z"/></svg>

<svg xmlns="http://www.w3.org/2000/svg" width="512" height="512" data-name="Layer 1" viewBox="0 0 24 24"><path d="M15 14h7v2.362L17.302 22H22v2h-7v-2.362L19.698 16H15zm7-10.5V10h-2V7h-3v3h-2V3.5C15 1.57 16.57 0 18.5 0S22 1.57 22 3.5M20 5V3.5c0-.827-.673-1.5-1.5-1.5S17 2.673 17 3.5V5zM7 21V0H5v21l-3.5-3.5-1.414 1.414 4.5 4.5c.39.39.902.585 1.414.585s1.024-.195 1.414-.585l4.5-4.5L10.5 17.5z"/></svg>
